X: 20482
T: ROUSSEAUS DREAM
Q: "Moderato"
%R: march
B: "Edinburgh Repository of Music" v.2 p.48 #2
F: http://digital.nls.uk/special-collections-of-printed-music/pageturner.cfm?id=87776133
Z: 2015 John Chambers <jc:trillian.mit.edu>
M: C
L: 1/8
K: D
|:\
f2 (f>e) d2 d2 | e2 e2 (f2 d)z |\
f2 (f>e) d2 d2 | ({f}e>d)(e>f) d2 z2 :|\
|:\
f2 (f>g) a2a2 | b2 (b>g) (a2 f)z |
"_cres:"f2 (f>g) a2 a2 | b2 d'>b Ha4 |\
f2 (f>e) d2d2 | e2 e2 (f2 d)z |\
f2 (f>e) d2 d2 | ({f}e>d)(ef) d2 z2 :|

%%sep 2 1 500
%%sep 1 1 500

